assets/img/braze_icons/navigation-pointer-off-02.svg

<svg fill="none" height="24" viewBox="0 0 24 24" width="24" xmlns="http://www.w3.org/2000/svg"><g fill="#801ed7"><path clip-rule="evenodd" d="m2.70711 1.29289c-.39053-.390521-1.02369-.390521-1.41422 0-.390521.39053-.390521 1.02369 0 1.41422l6.46514 6.46513-4.70741 10.73286c-.11507.2623-.22653.5163-.29784.7271-.06161.1822-.18653.5753-.0528.9982.14748.4664.51309.8316.97965.9785.42307.1333.81609.0079.99815-.0539.21072-.0716.46461-.1833.72677-.2987l6.59105-2.9001 6.5911 2.9001c.2621.1154.516.2271.7267.2987.1821.0618.5751.1872.9982.0539.2111-.0664.4015-.1776.5605-.3226l.4208.4208c.3905.3905 1.0237.3905 1.4142 0s.3905-1.0237 0-1.4142z" fill-rule="evenodd"/><path d="m18.4354 14.1928-4.806-10.95774c-.1029-.23472-.2055-.46866-.3056-.65085-.0919-.16715-.2849-.4953-.6582-.68167-.4218-.21055-.9181-.21055-1.3399 0-.3733.18637-.5662.51452-.6581.68167-.1002.18217-.2028.4161-.3057.6508l-.87931 2.00494z"/></g></svg>

<svg width="24" height="24" viewBox="0 0 24 24" fill="none" xmlns="http://www.w3.org/2000/svg">
<path fill-rule="evenodd" clip-rule="evenodd" d="M2.70711 1.29289C2.31658 0.902369 1.68342 0.902369 1.29289 1.29289C0.902369 1.68342 0.902369 2.31658 1.29289 2.70711L7.75803 9.17224L3.05062 19.9051C2.93555 20.1674 2.82409 20.4214 2.75278 20.6322C2.69117 20.8144 2.56625 21.2075 2.69998 21.6304C2.84746 22.0968 3.21307 22.462 3.67963 22.6089C4.1027 22.7422 4.49572 22.6168 4.67778 22.555C4.8885 22.4834 5.14239 22.3717 5.40455 22.2563L11.9956 19.3562L18.5867 22.2563C18.8488 22.3717 19.1027 22.4834 19.3134 22.555C19.4955 22.6168 19.8885 22.7422 20.3116 22.6089C20.5227 22.5425 20.7131 22.4313 20.8721 22.2863L21.2929 22.7071C21.6834 23.0976 22.3166 23.0976 22.7071 22.7071C23.0976 22.3166 23.0976 21.6834 22.7071 21.2929L2.70711 1.29289Z" fill="#801ED7"/>
<path d="M18.4354 14.1928L13.6294 3.23506C13.5265 3.00034 13.4239 2.7664 13.3238 2.58421C13.2319 2.41706 13.0389 2.08891 12.6656 1.90254C12.2438 1.69199 11.7475 1.69199 11.3257 1.90254C10.9524 2.08891 10.7595 2.41706 10.6676 2.58421C10.5674 2.76638 10.4648 3.00031 10.3619 3.23501L9.48259 5.23995L18.4354 14.1928Z" fill="#801ED7"/>
</svg>
